X: 18402
T: Hunt, The
R: hornpipe
M: 4/4
K: Gmajor
GABG AGEG|c2 ce dcBA|GABG AGED|EAAG A2 BA|
GABG AGEG|cdec dcBA|GA B/A/G AGED|E<GGF G2 D/E/F:|
GABc d2 de|=f2 fe f2 ed|e2 ed efge|d2 de d2 cB|
cBcd edcB|A2 AB (3ABA G2|g2 gf gedB|A2 AB A2 BA|
GABG AGEG|cdec dcBA|GA B/A/G AGED|E<GGF G2 D/E/F||

